X:1
T:Modulation on God Save the King
T:Modulation on God Save the King
L:1/8
M:3/4
K:D
V:1 treble 
V:1
 d/A/F/A/ d/A/F/A/ e/A/G/A/ | c/A/E/A/ c/A/d/A/ e/A/c/A/ | f/A/D/A/ f/A/D/A/ g/A/E/A/ | %3
 f/A/D/A/ A,/A/e/A/ d/A/F/A/ | G/B/e/B/ F/A/d/A/ E/A/c/A/ | D/E/F/G/ A/B/c/d/ D2 :: %6
 a/A/F/A/ a/A/F/A/ a/A/F/A/ | a/A/F/A/ g/A/E/A/ f/A/D/A/ | g/A/E/A/ g/A/E/A/ g/A/E/A/ | %9
 g/A/E/A/ f/A/D/A/ e/A/c/A/ | f/A/D/A/ g/A/f/A/ e/A/d/A/ | f/A/D/A/ g/A/E/A/ a/A/F/A/ | %12
 b/G/F/E/ g/F/E/D/ g/E/D/C/ | e/d/c/B/ A/G/F/E/ F2 |: %14
[M:3/4]"^Second part to God Save the King" F2 F2 G2 | A3 B c2 | d2 d2 e2 | d3 A F2 | G2 F2 A2 | %19
 G2 F4 :: f2 f2 f2 | f3 e d2 | e2 e2 e2 | e3 d c2 | d2 edAF | d3 e f2 | (3gfe d2 A2 | G2 F4 || %28

